src/shared/assets/dialog/dialog-page-style-settings/dialogPageStyleSettings-delete.svg

<svg width="24" height="24" viewBox="0 0 24 24" fill="none" xmlns="http://www.w3.org/2000/svg">
<path d="M14.9669 4.6087L14.0832 3.75961C13.9894 3.66582 13.8611 3.61646 13.7327 3.61646H10.2673C10.134 3.61646 10.0106 3.66582 9.91678 3.75961L9.03314 4.6087C8.93935 4.69756 8.811 4.75186 8.68265 4.75186H5.50846C5.22708 4.75186 5 4.97894 5 5.26032V6.47471C5 6.75609 5.22708 6.98317 5.50846 6.98317H18.4915C18.7729 6.98317 19 6.75609 19 6.47471V5.25538C19 4.974 18.7729 4.74692 18.4915 4.74692H15.3173C15.189 4.74692 15.0606 4.69756 14.9669 4.6087ZM5.55289 18.3644C5.53808 19.4652 6.42172 20.3686 7.52257 20.3834H16.4774C17.5783 20.3686 18.4619 19.4652 18.4471 18.3644V8.56538C18.4471 8.284 18.22 8.05692 17.9386 8.05692H6.05642C5.77504 8.05692 5.54795 8.284 5.54795 8.56538V18.3644H5.55289ZM9.93159 16.5823H9.42807C9.14669 16.5823 8.9196 16.3552 8.9196 16.0738V11.9864C8.9196 11.705 9.14669 11.4779 9.42807 11.4779H9.93159C10.213 11.4779 10.4401 11.705 10.4401 11.9864V16.0738C10.4351 16.3552 10.208 16.5823 9.93159 16.5823ZM14.5917 16.5823H14.0684C13.787 16.5823 13.5599 16.3552 13.5599 16.0738V11.9864C13.5599 11.705 13.787 11.4779 14.0684 11.4779H14.567C14.8434 11.4779 15.0705 11.705 15.0755 11.9815L15.1001 16.0689C15.1001 16.3552 14.8731 16.5823 14.5917 16.5823Z" fill="white"/>
</svg>

<svg xmlns="http://www.w3.org/2000/svg" fill="none" viewBox="0 0 24 24"><path fill="#fff" d="m14.967 4.609-.884-.85a.5.5 0 0 0-.35-.143h-3.466a.5.5 0 0 0-.35.144l-.884.849a.52.52 0 0 1-.35.143H5.508A.51.51 0 0 0 5 5.26v1.215c0 .281.227.508.508.508h12.984A.51.51 0 0 0 19 6.475v-1.22a.51.51 0 0 0-.509-.508h-3.174a.5.5 0 0 1-.35-.138M5.553 18.364a1.995 1.995 0 0 0 1.97 2.02h8.954a1.995 1.995 0 0 0 1.97-2.02V8.565a.51.51 0 0 0-.508-.508H6.056a.51.51 0 0 0-.508.508v9.8zm4.379-1.782h-.504a.51.51 0 0 1-.508-.508v-4.088c0-.281.227-.508.508-.508h.504c.281 0 .508.227.508.508v4.088a.514.514 0 0 1-.508.508m4.66 0h-.524a.51.51 0 0 1-.508-.508v-4.088c0-.281.227-.508.508-.508h.499c.276 0 .503.227.508.504l.025 4.087a.51.51 0 0 1-.508.513"/></svg>
